X: 756
T: Air Of Sunset Land, The
R: reel
M: 4/4
K: Aminor
JA4-A3~A|^cd2e3-e2|{a}ed4e/d/ (3^cde|J^c3-c2zAF|JG4 {A}G/{A}G/ EG2|
A8-|A4z2Ja2-|a2-~a3^ge2|f4-f3 ~e|d3-d2{e}dcd-|de4-e3-|
e4z4|Ja4-~a3{c'}a/g/|e3=f3-f2-|f{a}ed6|z2eJg3=fe-|e8-|!>!e3z2JA3-|
~A3{c}Aced2-|d4{e}d/{e}d/^cd2|{e}d^cdeJ=c4|(3dcA cJB3-B2-|!>!B6z2|
z4z3 (3d/e/g/|Ja8|{c'}a2^geJa4-|a8-|aJc'6 (3b/c'/b/|b3{c'}baJaeJa-|
a8-|a2Ja2z2Ja2-|a2{c'}a{c'}a/g/e3=f-|f2{ef}ed3-d2-|d3e/d/cd2e-|e8-|
>!e2z4GA-|A3{c}A2ced-|d3-d2{e}d^cd-|d2{e}d/^c/deJc3-|c2d/c/A/c/JB4-|B8-|
BJc3 (3dcB JA2-|A3-A2^AB/{c}B/^A|A3B//A//B//A// GE3-|
E2{A}E/{A}E/D3E.A|z{c}B/A/G/E/A3-A2-|A8-|A8|

